X: 22619
T: Lady's Favourite, The
R: jig
M: 6/8
K: Gmajor
|:D|GGG BGB|dBd cAc|BGB cAG|FEF DEF|
GGG BGB|dBd cAc|BGB cAG|FDG G2:|
dBd efg|dAG FED|dBd efg|fdf g3|
dBd efg|dAG FED|AdB cAG|FDG G3|
dBd efg|dAG FED|dBd efg|fdf a2 c'|
(3gab g afd|ecA GFE|dBd cBA|AGG G2||

